src/assets/svg/icons/fa/nuevos/classic/thin/house-user classic thin.svg

<svg xmlns="http://www.w3.org/2000/svg" viewBox="0 0 576 512"><!--! Font Awesome Pro 6.4.0 by @fontawesome - https://fontawesome.com License - https://fontawesome.com/license (Commercial License) Copyright 2023 Fonticons, Inc. --><path d="M282.7 2c3-2.7 7.6-2.7 10.6 0l280 248c3.3 2.9 3.6 8 .7 11.3s-8 3.6-11.3 .7L512 217.1V448c0 35.3-28.7 64-64 64H128c-35.3 0-64-28.7-64-64V217.1L13.3 262c-3.3 2.9-8.4 2.6-11.3-.7S-.6 252.9 2.7 250L282.7 2zM80 202.9V448c0 26.5 21.5 48 48 48H448c26.5 0 48-21.5 48-48V202.9L288 18.7 80 202.9zM288 272a48 48 0 1 0 0-96 48 48 0 1 0 0 96zm0-112a64 64 0 1 1 0 128 64 64 0 1 1 0-128zM192 400H384c0-35.3-28.7-64-64-64H256c-35.3 0-64 28.7-64 64zm-16 0c0-44.2 35.8-80 80-80h64c44.2 0 80 35.8 80 80c0 8.8-7.2 16-16 16H192c-8.8 0-16-7.2-16-16z"/></svg>

<svg xmlns="http://www.w3.org/2000/svg" viewBox="0 0 576 512"><path d="M224 224C224 188.7 252.7 160 288 160C323.3 160 352 188.7 352 224C352 259.3 323.3 288 288 288C252.7 288 224 259.3 224 224zM288 272C314.5 272 336 250.5 336 224C336 197.5 314.5 176 288 176C261.5 176 240 197.5 240 224C240 250.5 261.5 272 288 272zM176 400C176 355.8 211.8 320 256 320H320C364.2 320 400 355.8 400 400C400 408.8 392.8 416 384 416H192C183.2 416 176 408.8 176 400zM384 400C384 364.7 355.3 336 320 336H256C220.7 336 192 364.7 192 400H384zM282.7 2.011C285.7-.6704 290.3-.6704 293.3 2.011L573.3 250C576.6 252.9 576.9 257.1 573.1 261.3C571.1 264.6 566 264.9 562.7 261.1L512 217.1V448C512 483.3 483.3 512 448 512H128C92.65 512 64 483.3 64 448V217.1L13.3 261.1C9.997 264.9 4.941 264.6 2.012 261.3C-.9182 257.1-.6116 252.9 2.696 250L282.7 2.011zM80 202.9V448C80 474.5 101.5 496 128 496H448C474.5 496 496 474.5 496 448V202.9L288 18.69L80 202.9z"/></svg>
